Adwaita++/actions/16/license.svg

<svg height="16" viewBox="0 0 16 16" width="16" xmlns="http://www.w3.org/2000/svg">
  <path d="m8 1.0039062c-3.8659033 0-7 3.1340967-7 7 0 3.8659038 3.1340967 6.9999998 7 6.9999998 3.865903 0 7-3.134096 7-6.9999998 0-3.8659033-3.134097-7-7-7zm0 2c2.760931 0 5 2.2386691 5 5 0 2.7609308-2.239069 4.9999998-5 4.9999998-2.761331 0-5-2.239069-5-4.9999998 0-2.7613309 2.238669-5 5-5zm0 2a2.999925 2.999925 0 0 0 -3 3 2.999925 2.999925 0 0 0 3 2.9999998 2.999925 2.999925 0 0 0 2.396484-1.2011716l-.7988278-.5996094a1.99995 1.99995 0 0 1 -1.5976562.800781 1.99995 1.99995 0 0 1 -2-1.9999998 1.99995 1.99995 0 0 1 2-2 1.99995 1.99995 0 0 1 1.5996094.8007813l.7968746-.5996094a2.999925 2.999925 0 0 0 -2.396484-1.2011719z" fill="#474747"/>
</svg>

<svg xmlns="http://www.w3.org/2000/svg" width="16" height="16" viewBox="0 0 16 16">
 <defs>
  <style id="current-color-scheme" type="text/css">
   .ColorScheme-Text { color:#474747; } .ColorScheme-Highlight { color:#4285f4; }
  </style>
 </defs>
 <path style="fill:currentColor" class="ColorScheme-Text" d="M 8 1.0039062 C 4.1340967 1.0039062 1 4.1380029 1 8.0039062 C 1 11.86981 4.1340967 15.003906 8 15.003906 C 11.865903 15.003906 15 11.86981 15 8.0039062 C 15 4.1380029 11.865903 1.0039062 8 1.0039062 z M 8 3.0039062 C 10.760931 3.0039062 13 5.2425753 13 8.0039062 C 13 10.764837 10.760931 13.003906 8 13.003906 C 5.238669 13.003906 3 10.764837 3 8.0039062 C 3 5.2425753 5.238669 3.0039062 8 3.0039062 z M 8 5.0039062 A 2.999925 2.999925 0 0 0 5 8.0039062 A 2.999925 2.999925 0 0 0 8 11.003906 A 2.999925 2.999925 0 0 0 10.396484 9.8027344 L 9.5976562 9.203125 A 1.99995 1.99995 0 0 1 8 10.003906 A 1.99995 1.99995 0 0 1 6 8.0039062 A 1.99995 1.99995 0 0 1 8 6.0039062 A 1.99995 1.99995 0 0 1 9.5996094 6.8046875 L 10.396484 6.2050781 A 2.999925 2.999925 0 0 0 8 5.0039062 z"/>
</svg>
